X: 1
T: the Battle of the Boyne
R: march
Z: John Chambers <jc:trillian.mit.edu>
M: 2/4
L: 1/16
K: ADor
Bd | "Am"e2A2 e2g2 | "G"dcBA G2Bd | "Am"e2A2 "E7"e2dB | "Am"B2A2 A2Bd \
   | "Am"e2A2 e2g2 | "G"dcBA G2Bd | "Am"e2A2 "E7"e2dB | "Am"A6  :|
B2 | "G"G2g2 g3a | gage d3g  | "Am"e2a2  "G"a2g{a}b | "Am"a4 e3f \
   | "G"g3a g2e2 | dcBA G2Bd | "Am"e2A2 "E7"e2dB    | "Am"A6    ||
B2 | "G"G2g2 g3a | gage d3g  | "Am"e2a2  "G"a2g{a}b | "Am"a4 e3f \
   | "G"g3a g2e2 | dcBA G2AB |  "C"c2BA "E7"e2dB    | "Am"A6    |]
